packages/core/src/svgs/tokens/mono/CERE.svg

<svg width="24" height="24" viewBox="0 0 24 24" fill="none" xmlns="http://www.w3.org/2000/svg">
<path d="M16.9993 13.7632C15.8936 15.0865 14.6467 15.5276 12.8822 15.5276C11.7177 15.5276 10.6766 15.1159 9.9414 14.6453L8.76511 16.1158C9.70617 16.8274 11.1531 17.2921 12.8822 17.2921C14.4115 17.2921 15.6878 17.0275 16.9993 16.1158L18.7638 17.8803C16.9468 19.3936 14.6588 20.2256 12.294 20.2329C9.09448 20.2564 6.54777 18.8977 5.23617 16.1158C5.94972 15.6902 6.54123 15.0876 6.95341 14.3663C7.3656 13.645 7.58447 12.8294 7.5888 11.9987C7.5888 10.5989 6.6007 8.87556 5.23617 7.88157C6.6007 5.31132 8.95921 3.82329 12.294 3.76447C14.5114 3.74094 17.1993 4.68788 18.7638 6.1171L16.9993 7.88157C15.6994 7.05815 14.4115 6.70526 12.8822 6.70526C11.2941 6.70526 9.68847 7.09343 8.76511 7.88746L9.9414 9.35787C10.6472 8.89908 11.9235 8.46973 12.8822 8.46973C14.5996 8.46973 15.8936 8.91085 16.9993 10.2343L21.1165 6.1171C19.2167 3.54685 16.1641 2 12.294 2C7.90641 2 4.30099 4.41144 2.88354 8.46973C4.47157 9.1167 5.82432 10.5048 5.82432 11.9987C5.82432 13.4925 4.48333 14.8924 2.88354 15.5276C3.95987 19.9506 7.81818 22.0856 12.294 21.9974C16.3288 21.9268 19.3991 20.4093 21.1165 17.8803L16.9993 13.7632Z" fill="white"/>
</svg>

<svg xmlns="http://www.w3.org/2000/svg" width="24" height="24" fill="none" viewBox="0 0 24 24">
    <path fill="#fff" d="M17 13.763c-1.106 1.323-2.353 1.765-4.118 1.765-1.164 0-2.205-.412-2.94-.883l-1.177 1.47c.941.712 2.388 1.177 4.117 1.177 1.53 0 2.806-.265 4.117-1.176l1.765 1.764a10.16 10.16 0 0 1-6.47 2.353c-3.2.023-5.746-1.335-7.058-4.117a4.82 4.82 0 0 0 2.353-4.117c0-1.4-.988-3.123-2.353-4.117 1.365-2.57 3.723-4.059 7.058-4.118 2.217-.023 4.905.924 6.47 2.353l-1.765 1.765c-1.3-.824-2.587-1.177-4.117-1.177-1.588 0-3.194.388-4.117 1.182l1.176 1.47c.706-.458 1.983-.887 2.941-.887 1.718 0 3.012.44 4.117 1.764l4.118-4.117C19.217 3.547 16.164 2 12.293 2 7.905 2 4.3 4.411 2.883 8.47c1.588.647 2.94 2.035 2.94 3.529s-1.34 2.893-2.94 3.529c1.076 4.423 4.934 6.558 9.41 6.47 4.035-.071 7.105-1.589 8.822-4.118z"/>
</svg>
